private/icons/dark/mail-folder-inbox.svg

<svg viewBox="0 0 32 32" xmlns="http://www.w3.org/2000/svg"><path d="m26.7 17.3v6.7a.71.71 0 0 1 -.3.6.86.86 0 0 1 -.6.3h-19.6a.71.71 0 0 1 -.6-.3.86.86 0 0 1 -.3-.6v-6.7a5.08 5.08 0 0 1 .3-1.7l3.4-7.7c0-.2.2-.4.5-.6a1 1 0 0 1 .7-.2h11.6a1.85 1.85 0 0 1 .7.2c.3.2.5.4.5.6l3.3 7.7a3.53 3.53 0 0 1 .4 1.7zm-7.1-.4h4.4v-.2l-3-6.9h-9.9l-3 6.9v.2h4.4l1.3 2.7h4.5z" fill="#2485ce"/></svg>

<svg id="Layer_1" data-name="Layer 1" xmlns="http://www.w3.org/2000/svg" viewBox="0 0 32 32"><defs><style>.cls-1{fill:#2485ce;}</style></defs><path class="cls-1" d="M26.7,17.3V24a.71.71,0,0,1-.3.6.86.86,0,0,1-.6.3H6.2a.71.71,0,0,1-.6-.3.86.86,0,0,1-.3-.6V17.3a5.08,5.08,0,0,1,.3-1.7L9,7.9c0-.2.2-.4.5-.6a1,1,0,0,1,.7-.2H21.8a1.85,1.85,0,0,1,.7.2c.3.2.5.4.5.6l3.3,7.7A3.53,3.53,0,0,1,26.7,17.3Zm-7.1-.4H24v-.2L21,9.8H11.1l-3,6.9v.2h4.4l1.3,2.7h4.5Z"/></svg>
